img/icons/notification-bell.svg

<svg xmlns="http://www.w3.org/2000/svg" width="34.8" height="43.8"><path d="M17.4 43.8a5.73 5.73 0 0 1-5.9-5.54v-2.47H.9a.91.91 0 0 1-.44-.11.9.9 0 0 1-.35-1.22L3 29.21v-11.3A14.41 14.41 0 0 1 16.41 3.58h.09V.92a.9.9 0 0 1 .8-.92h.1a.91.91 0 0 1 .9.92v2.66h.09A14.41 14.41 0 0 1 31.8 17.91v11.25l2.89 5.3a.9.9 0 0 1-.79 1.34H23.3v2.47a5.73 5.73 0 0 1-5.9 5.53zm-4.1-5.54A3.89 3.89 0 0 0 17.4 42a3.89 3.89 0 0 0 4.1-3.74v-2.47h-8.2zm4.1-32.93A12.6 12.6 0 0 0 4.8 17.91v11.5a.9.9 0 0 1-.11.42L2.42 34h30l-2.27-4.16a.9.9 0 0 1-.11-.42V17.91A12.6 12.6 0 0 0 17.4 5.33z" fill="#378fdb"/></svg>

<svg xmlns="http://www.w3.org/2000/svg" width="34.8" height="43.8" viewBox="0 0 34.8 43.8"><title>notification-bell</title><path d="M17.4,43.8a5.73,5.73,0,0,1-5.9-5.54V35.79H.9a.91.91,0,0,1-.44-.11.9.9,0,0,1-.35-1.22L3,29.21V17.91A14.41,14.41,0,0,1,16.41,3.58h.09V.92A.9.9,0,0,1,17.3,0h.1a.91.91,0,0,1,.9.92V3.58h.09A14.41,14.41,0,0,1,31.8,17.91V29.16l2.89,5.3a.9.9,0,0,1-.79,1.34H23.3v2.47A5.73,5.73,0,0,1,17.4,43.8Zm-4.1-5.54A3.89,3.89,0,0,0,17.4,42a3.89,3.89,0,0,0,4.1-3.74V35.79H13.3ZM17.4,5.33A12.6,12.6,0,0,0,4.8,17.91V29.41a.9.9,0,0,1-.11.42L2.42,34h30l-2.27-4.16a.9.9,0,0,1-.11-.42V17.91A12.6,12.6,0,0,0,17.4,5.33Z" style="fill:#378fdb"/></svg>
